X: 35750
T: Salamanca, The
R: reel
M: 4/4
K: Dmajor
dB|AD D2 ADBD|Adcd (3gfe dc|BE E2 cE E2|Beed ceAg|
fBBA B3g|fdec dfag|fdge dBAG|FAEA D2 dB|
AF F2 AF F2|Adcd fedc|BG G2 BG G2|Beed cdeg|
fBBA B3g|fdec dfag|fd (3gfe dABG|FAEA D2||
fg|afdf gbeg|fdfe dcAG|(3FGA dc defg|a3b afdf|
a3f g2 bg|fdec dfag|fd (3gfe dABG|FAEA D2 fg|
afdf gbeg|fdfe dABG|(3FGA ce defg|afbf a2 (3ABc|
defg afdf|(3gfd ec dfag|fd (3gfe dABG|FAEA D2||

